packages/components/src/components/icon/common/ic-other-payment-method.svg

<svg width="58" height="48" viewBox="0 0 58 48" fill="none" xmlns="http://www.w3.org/2000/svg">
<g clip-path="url(#clip0_888_3857)">
<path d="M8.37891 13.4518C9.86847 13.4518 11.5442 13.4518 13.1269 13.4518C13.1269 12.1938 13.1269 10.9357 13.1269 9.77441C11.4511 9.77441 9.96157 9.77441 8.37891 9.77441C8.37891 11.0325 8.37891 12.1938 8.37891 13.4518Z" fill="#84AAAE"/>
<path d="M30.8154 33.1936L30.9085 33C31.4671 31.1613 32.8636 30.3871 34.1669 29.8065C35.8427 29.129 37.7047 28.7419 39.8459 28.8387C40.3114 28.8387 40.7769 28.8387 41.2424 28.9355H41.6148C41.6148 28.8387 41.6148 28.7419 41.5217 28.5484C41.4286 27.3871 41.7079 25.7419 43.5698 24.4839C44.687 23.8065 45.8973 23.3226 47.3868 23.0323C48.1316 22.9355 48.7833 22.8387 49.3419 22.8387L49.9005 22.7419H49.9936C51.297 22.7419 52.6003 22.8387 53.9037 23.129C53.9037 16.6452 53.9037 10.1613 53.9037 3.67742C53.9968 1.45161 52.6003 0 50.4591 0C34.8186 0 19.1782 0 3.53772 0C1.48957 0 0.46549 0.774194 0 2.80645V3C0 12.2903 0 21.7742 0 31.2581C0 31.5484 0.186196 31.7419 0.279294 32.2258C0.558588 33.4839 1.76886 34.6452 3.16533 34.6452C3.35153 34.6452 3.44462 34.6452 3.63082 34.6452C12.7544 34.6452 21.7849 34.6452 30.8154 34.6452V33.1936ZM29.2327 24.1936C31.8395 24.1936 34.4462 24.1936 36.9599 24.1936C36.9599 25.1613 36.9599 26.2258 36.9599 27.3871C34.3531 27.3871 31.7464 27.3871 29.2327 27.3871C29.2327 26.2258 29.2327 25.1613 29.2327 24.1936ZM12.7544 27.3871C10.1477 27.3871 7.54093 27.3871 5.02729 27.3871C5.02729 26.4194 5.02729 25.3548 5.02729 24.1936C7.63403 24.1936 10.2408 24.1936 12.7544 24.1936C12.7544 25.1613 12.7544 26.2258 12.7544 27.3871ZM16.2921 14.0323C16.2921 15.5806 15.0819 16.7419 13.5923 16.7419C12.6613 16.7419 11.6372 16.7419 10.7063 16.7419C9.77528 16.7419 8.8443 16.7419 7.82022 16.9355C6.14446 16.9355 5.12039 15.6774 5.12039 14.129C5.12039 12.5806 5.12039 11.129 5.12039 9.58065C5.12039 7.83871 6.33066 6.77419 7.82022 6.77419C9.77528 6.77419 11.6372 6.77419 13.5923 6.77419C15.2681 6.77419 16.2921 7.83871 16.2921 9.48387C16.2921 11.129 16.2921 12.4839 16.2921 14.0323ZM24.764 27.1936C22.1573 27.1936 19.5506 27.1936 17.0369 27.1936C17.0369 26.2258 17.0369 25.1613 17.0369 24C19.6437 24 22.2504 24 24.764 24C24.764 24.9677 24.764 26.129 24.764 27.1936Z" fill="#84AAAE"/>
<path d="M32.2119 33.387C32.5843 32.1289 33.6084 31.5483 34.7256 31.0644C36.4013 30.387 38.0771 30.0967 39.8459 30.1934C40.4976 30.1934 41.1493 30.2902 41.801 30.2902C41.801 32.8063 41.801 35.3225 41.801 37.9354C41.1493 37.9354 40.5907 38.0321 39.939 38.0321C38.1702 38.0321 36.4013 37.8386 34.7256 37.1612C34.3532 36.9676 34.0739 36.8709 33.7015 36.6773C33.0498 36.2902 32.4912 35.7096 32.2119 34.9354C32.2119 34.3547 32.2119 33.8709 32.2119 33.387Z" fill="#E0F0F0"/>
<path d="M32.2118 41.3222C32.2118 41.2254 32.3049 41.1286 32.398 40.9351C32.7704 41.5157 33.1428 41.9996 33.7014 42.2899C34.7255 42.9673 35.8426 43.2576 36.9598 43.4512C38.5425 43.7415 40.0321 43.7415 41.6147 43.548H41.7078C41.7078 44.2254 41.6147 44.9996 41.9871 45.677C41.5216 45.677 41.0561 45.7738 40.5906 45.7738C38.6356 45.8705 36.6805 45.677 34.8186 44.9996C34.4462 44.9028 34.1669 44.7093 33.7945 44.5157C32.9566 44.0318 32.3049 43.548 32.0256 42.5802C32.2118 42.1931 32.2118 41.7093 32.2118 41.3222Z" fill="#E0F0F0"/>
<path d="M32.2119 37.3549C32.2119 37.2581 32.305 37.0645 32.3981 36.9678C33.3291 38.4194 34.8187 39 36.4013 39.3871C38.0771 39.7742 39.8459 39.871 41.5217 39.6774C41.6148 39.6774 41.7079 39.6774 41.801 39.6774C41.801 40.4516 41.801 41.1291 41.801 41.9033C41.6148 41.9033 41.4286 42 41.1493 42C39.0081 42.1936 36.8668 42 34.8187 41.2258C34.167 40.9355 33.6084 40.6452 33.1429 40.1613C32.7705 39.7742 32.4912 39.3871 32.305 38.8065C32.2119 38.2258 32.2119 37.8387 32.2119 37.3549Z" fill="#E0F0F0"/>
<path d="M50.0867 24.1934C52.321 24.1934 54.183 24.4837 55.8587 25.2579C56.4173 25.5482 56.9759 25.8385 57.4414 26.4192C57.8138 26.8063 58 27.2901 58 27.8708C58 28.1611 58 28.5482 58 28.8385C57.9069 29.4192 57.5345 29.8063 57.1621 30.1934C56.3242 30.9676 55.207 31.3546 54.183 31.645C52.6003 32.0321 51.0176 32.1288 49.3419 32.0321C47.8523 31.9353 46.4558 31.645 45.1525 30.9676C44.5939 30.6772 44.0353 30.2901 43.6629 29.8063C43.2905 29.4192 43.1974 28.9353 43.1043 28.3546C43.0112 27.0966 43.5698 26.3224 44.5008 25.645C45.5249 24.9676 46.642 24.5805 47.8523 24.3869C48.6902 24.2901 49.5281 24.2901 50.0867 24.1934Z" fill="#E0F0F0"/>
<path d="M43.1974 34.9351C43.8491 35.9996 44.8732 36.5802 45.8973 36.9673C47.7592 37.6447 49.7143 37.8383 51.7624 37.6447C53.1589 37.548 54.4623 37.2576 55.6725 36.7738C56.4173 36.4834 57.069 35.9996 57.6276 35.3222C57.7207 35.2254 57.8138 35.0318 57.9069 34.9351C57.9069 35.0318 58 35.0318 58 35.0318C58.1862 36.1931 58.1862 37.1609 57.3483 37.9351C56.6966 38.5157 55.8587 38.9028 55.0209 39.1931C53.252 39.7738 51.4831 39.9673 49.7143 39.8705C48.3178 39.7738 47.0144 39.5802 45.7111 38.9996C44.9663 38.7093 44.3146 38.3222 43.756 37.7415C43.2905 37.2576 43.1043 36.7738 43.1043 36.0963C43.0112 35.7093 42.9181 35.3222 43.1974 34.9351Z" fill="#E0F0F0"/>
<path d="M43.1975 43.0645C44.0354 44.5161 45.5249 44.9999 46.9214 45.387C48.5041 45.8709 50.1798 45.8709 51.8556 45.7741C53.2521 45.6774 54.6485 45.387 55.9519 44.7096C56.6967 44.3225 57.3484 43.8386 57.7208 43.0645C57.8139 43.3548 57.8139 43.5483 57.8139 43.6451C57.8139 43.9354 57.8139 44.3225 57.8139 44.7096C57.8139 45.1935 57.5346 45.5806 57.2553 45.8709C56.6967 46.5483 55.9519 46.9354 55.114 47.2257C53.4383 47.9032 51.6694 48.0967 49.8074 47.9999C48.411 47.9999 47.0145 47.7096 45.618 47.2257C44.8733 46.9354 44.2216 46.5483 43.5699 46.0644C42.8251 45.2903 42.8251 43.9354 43.1975 43.0645Z" fill="#E0F0F0"/>
<path d="M57.8138 30.9678C57.8138 31.0645 57.8138 31.0645 57.8138 30.9678C58.0931 31.9355 58.0931 33.0968 57.3483 33.871C56.6035 34.5484 55.7656 35.0323 54.8347 35.3226C52.9727 35.9033 51.0177 36.0968 49.0626 35.9033C47.7592 35.8065 46.4559 35.5162 45.2456 34.9355C44.7801 34.6452 44.2215 34.3549 43.8491 34.0645C43.2905 33.5807 43.0112 33 43.0112 32.2258C43.0112 31.8387 43.0112 31.4516 43.1974 31.0645C44.1284 32.6129 45.618 33.0968 47.2006 33.4839C48.8764 33.871 50.4591 33.9678 52.1348 33.7742C53.4382 33.5807 54.8347 33.2904 56.0449 32.7097C56.6966 32.2258 57.3483 31.742 57.8138 30.9678Z" fill="#E0F0F0"/>
<path d="M57.8138 39.0967C57.8138 39.1935 57.9069 39.1935 57.9069 39.2902C58.0931 40.5483 58.0931 41.4193 57.069 42.2902C56.2311 42.9676 55.3002 43.3547 54.2761 43.6451C52.6003 44.1289 50.9246 44.2257 49.1557 44.0322C47.7592 43.9354 46.4559 43.6451 45.2456 43.0644C44.687 42.7741 44.1284 42.4838 43.6629 41.9999C43.1974 41.516 43.0112 41.0322 43.0112 40.3547C43.0112 39.9676 43.0112 39.5806 43.1974 39.0967C43.2905 39.1935 43.3836 39.387 43.4767 39.4838C44.0353 40.1612 44.687 40.5483 45.4318 40.9354C46.5489 41.4193 47.7592 41.7096 48.9695 41.8064C50.9245 41.9999 52.7865 41.9031 54.6485 41.2257C55.2071 41.0322 55.6725 40.8386 56.2311 40.5483C56.8828 40.258 57.4414 39.7741 57.8138 39.0967Z" fill="#E0F0F0"/>
</g>
<defs>
<clipPath id="clip0_888_3857">
<rect width="58" height="48" fill="white"/>
</clipPath>
</defs>
</svg>

<svg width="58" height="48" fill="none" xmlns="http://www.w3.org/2000/svg"><g clip-path="url(#a)"><path d="M8.379 13.452h4.748V9.774H8.379v3.678Z" fill="#84AAAE"/><path d="m30.815 33.194.093-.194c.56-1.839 1.956-2.613 3.259-3.194a13.28 13.28 0 0 1 5.679-.967c.465 0 .93 0 1.396.097h.373c0-.097 0-.194-.093-.388-.093-1.16.186-2.806 2.048-4.064 1.117-.678 2.327-1.161 3.817-1.452.745-.096 1.396-.193 1.955-.193l.559-.097h.093c1.303 0 2.606.097 3.91.387V3.677C53.997 1.452 52.6 0 50.459 0H3.538C1.49 0 .465.774 0 2.806V31.258c0 .29.186.484.28.968.279 1.258 1.489 2.42 2.885 2.42H30.815v-1.452Zm-1.582-9h7.727v3.193h-7.727v-3.193Zm-16.479 3.193H5.027v-3.193h7.727v3.193Zm3.538-13.355c0 1.549-1.21 2.71-2.7 2.71h-2.886c-.93 0-1.862 0-2.886.194-1.676 0-2.7-1.259-2.7-2.807V9.581c0-1.742 1.21-2.807 2.7-2.807h5.772c1.676 0 2.7 1.065 2.7 2.71v4.548Zm8.472 13.162h-7.727V24h7.727v3.194Z" fill="#84AAAE"/><path d="M32.212 33.387c.372-1.258 1.396-1.839 2.514-2.323 1.675-.677 3.351-.967 5.12-.87.652 0 1.303.096 1.955.096v7.645c-.652 0-1.21.097-1.862.097-1.769 0-3.538-.193-5.213-.87-.373-.194-.652-.291-1.024-.485-.652-.387-1.21-.967-1.49-1.742v-1.548ZM32.212 41.322c0-.097.093-.193.186-.387.372.58.745 1.065 1.303 1.355 1.024.677 2.142.968 3.259 1.161 1.582.29 3.072.29 4.655.097h.093c0 .677-.093 1.452.28 2.129-.466 0-.932.097-1.397.097-1.955.096-3.91-.097-5.772-.774-.373-.097-.652-.29-1.025-.484-.837-.484-1.49-.968-1.768-1.936.186-.387.186-.87.186-1.258ZM32.212 37.355c0-.097.093-.29.186-.387.931 1.451 2.42 2.032 4.003 2.42a15.23 15.23 0 0 0 5.12.29h.28v2.225c-.186 0-.372.097-.652.097-2.14.194-4.282 0-6.33-.774-.652-.29-1.21-.58-1.676-1.065-.373-.387-.652-.774-.838-1.355-.093-.58-.093-.967-.093-1.451ZM50.087 24.193c2.234 0 4.096.29 5.772 1.065.558.29 1.117.58 1.582 1.161.373.387.559.871.559 1.452v.968c-.093.58-.465.967-.838 1.354-.838.775-1.955 1.162-2.979 1.452-1.583.387-3.165.484-4.841.387-1.49-.097-2.886-.387-4.19-1.064-.558-.29-1.117-.678-1.49-1.162-.371-.387-.465-.87-.558-1.451-.093-1.258.466-2.033 1.397-2.71 1.024-.677 2.141-1.064 3.351-1.258.838-.097 1.676-.097 2.235-.194ZM43.197 34.935c.652 1.065 1.676 1.645 2.7 2.032 1.862.678 3.817.871 5.865.678a12.86 12.86 0 0 0 3.91-.871c.745-.29 1.397-.774 1.956-1.452.093-.097.186-.29.279-.387 0 .097.093.097.093.097.186 1.161.186 2.129-.652 2.903-.651.58-1.49.968-2.327 1.258-1.769.58-3.538.774-5.307.678-1.396-.097-2.7-.29-4.003-.871-.745-.29-1.396-.678-1.955-1.258-.465-.484-.652-.968-.652-1.646-.093-.387-.186-.774.093-1.16ZM43.197 43.065c.838 1.451 2.328 1.935 3.724 2.322 1.583.484 3.259.484 4.935.387 1.396-.097 2.792-.387 4.096-1.064.745-.388 1.396-.871 1.769-1.645.093.29.093.483.093.58v1.065c0 .483-.28.87-.559 1.16-.558.678-1.303 1.065-2.141 1.356-1.676.677-3.445.87-5.307.774-1.396 0-2.793-.29-4.189-.774-.745-.29-1.396-.678-2.048-1.162-.745-.774-.745-2.129-.373-3Z" fill="#E0F0F0"/><path d="M57.814 30.968c0 .096 0 .096 0 0 .28.968.28 2.129-.466 2.903a6.637 6.637 0 0 1-2.513 1.452c-1.862.58-3.817.774-5.772.58-1.304-.096-2.607-.387-3.817-.968-.466-.29-1.025-.58-1.397-.87-.558-.484-.838-1.065-.838-1.84 0-.386 0-.773.186-1.16.931 1.548 2.421 2.032 4.004 2.419 1.675.387 3.258.484 4.934.29 1.303-.193 2.7-.484 3.91-1.064.652-.484 1.303-.968 1.769-1.742ZM57.814 39.097c0 .096.093.096.093.193.186 1.258.186 2.13-.838 3-.838.678-1.769 1.065-2.793 1.355-1.676.484-3.351.58-5.12.387-1.397-.097-2.7-.387-3.91-.968-.559-.29-1.118-.58-1.583-1.064-.466-.484-.652-.968-.652-1.645 0-.387 0-.774.186-1.258.093.096.187.29.28.387.558.677 1.21 1.064 1.955 1.451 1.117.484 2.327.775 3.537.871 1.956.194 3.817.097 5.68-.58a11.114 11.114 0 0 0 1.582-.678 3.33 3.33 0 0 0 1.583-1.451Z" fill="#E0F0F0"/></g><defs><clipPath id="a"><path fill="#fff" d="M0 0h58v48H0z"/></clipPath></defs></svg>
